!!!OTL: ICH BIN SO LANG NICHT BEI DIR GEWESN
!!!ARE: Europa, Mitteleuropa, Deutschland, Thueringen
!!!SCT: E1046
!!!YEM: Copyright 1995, estate of Helmut Schaffrath.
**kern
*ICvox
*Ivox
*M2/4
*k[f#]
*G:
{8d
=1
8g
8a
8b
8cc
=2
8dd
16cc
16b
8a}
{16g
16a
=3
8b
8a
8g
8f#
=4
4g
8r}
{8dd
=5
8cc
8b
8a
8g
=6
8f#
8e
8d}
{8dd
=7
8cc
8b
8a
8g
=8
8f#
8e
8d}
{8d
=9
8g
8a
8b
8cc
=10
8dd
16cc
16b
8a}
{16g
16a
=11
8b
8a
8g
8f#
=12
4g
8r}
==
!!!AGN: Tanz - Lied
!!!ONB: ESAC (Essen Associative Code) Database: ERK3
!!!AMT: simple duple
!!!AIN: vox
!!!EED: Helmut Schaffrath
!!!EEV: 1.0
*-
